X:35
T:Cast a Bell
M:C|
L:1/8
Q:180
K:DDor
FG A2 f2ed|g2ed e2E2|FG A2 f2ed|dGFE F2D2||
FG A2 f2ed|g2ed e2E2|FG A2 f2ed|dGFE F2D2||

